client/public/img/misc/mwheelup_icon.svg

<?xml version="1.0" encoding="UTF-8" standalone="no"?>
<svg
   width="17"
   height="26"
   viewBox="0 0 17 26"
   fill="none"
   version="1.1"
   id="svg7"
   xmlns="http://www.w3.org/2000/svg"
   xmlns:svg="http://www.w3.org/2000/svg">
  <defs
     id="defs7" />
  <path
     d="M1.00009 17.7082L2.21667 17.3223C2.51496 18.2908 2.95292 19.2357 3.5091 20.0877L2.30201 20.587C2.20057 20.6412 2.14738 20.6489 2.0624 20.491L0.918198 17.9343C0.864079 17.7952 0.868932 17.7452 1.00009 17.7082Z"
     fill="#333333"
     id="path1" />
  <path
     d="M0.759635 13.2256H1.78847C1.76957 13.6498 1.76212 14.0637 1.76212 14.4368C1.76212 15.3011 1.89601 16.2027 2.14751 17.0892L0.918117 17.2094C0.806045 17.2196 0.754915 17.2073 0.751739 17.0475L0.589717 13.4077C0.58572 13.2801 0.613086 13.2323 0.759635 13.2256Z"
     fill="#333333"
     id="path2" />
  <path
     d="M15.5964 7.13118C15.7483 8.14125 15.909 9.21013 16.1543 10.3039H10.7217V0.0869141C14.6144 0.599844 15.0477 3.48161 15.5964 7.13118Z"
     fill="#333333"
     id="path3" />
  <path
     d="M10.3098 0.0429585V10.3042H8.45605V0.0429618C8.74686 0.0184127 9.05541 0.00585938 9.38293 0.00585938C9.71042 0.00585938 10.0189 0.0184116 10.3098 0.0429585Z"
     fill="#FF0000"
     id="path4" />
  <path
     d="M8.04395 0.0869141V10.3039H2.61133C2.85666 9.21014 3.01737 8.14126 3.16923 7.1312C3.71796 3.48163 4.15125 0.599858 8.04395 0.0869141Z"
     fill="#333333"
     id="path5" />
  <path
     d="M16.2757 10.8188C16.2672 10.7845 16.2587 10.7501 16.2504 10.7158H2.51498L2.51212 10.7275C2.50714 10.748 2.50213 10.7684 2.49708 10.7888L2.48964 10.8188C2.24529 11.8015 2.17383 13.2916 2.17383 14.4364C2.17383 18.4088 5.1484 23.2772 9.38802 23.2798C13.6276 23.2772 16.5915 18.4088 16.5915 14.4364C16.5915 13.2916 16.52 11.8015 16.2757 10.8188Z"
     fill="#333333"
     id="path6" />
  <rect
     x="7.16455"
     y="12.7764"
     width="4.4365"
     height="4.54113"
     fill="#FF0000"
     id="rect6" />
  <path
     d="M3.90283 17.3174H14.8623L9.38256 25.0063L3.90283 17.3174Z"
     fill="#FF0000"
     id="path7" />
</svg>

<svg xmlns="http://www.w3.org/2000/svg" width="17" height="26" fill="none"><path fill="#333" d="m1 17.708 1.217-.386a11 11 0 0 0 1.292 2.766l-1.207.499c-.101.054-.155.062-.24-.096L.918 17.934c-.054-.139-.05-.189.082-.226m-.24-4.482h1.028a29 29 0 0 0-.026 1.21c0 .865.134 1.767.386 2.653l-1.23.12c-.112.01-.163-.002-.166-.162l-.162-3.64c-.004-.127.023-.175.17-.181m14.836-6.095c.152 1.01.313 2.08.558 3.173h-5.432V.087c3.892.513 4.326 3.395 4.874 7.044"/><path fill="red" d="M10.31.043v10.261H8.456V.043q.436-.037.927-.037.49 0 .927.037"/><path fill="#333" d="M8.044.087v10.217H2.611c.246-1.094.406-2.163.558-3.173C3.718 3.481 4.151.6 8.044.087m8.232 10.732-.026-.103H2.515l-.003.011-.015.062-.007.03c-.245.982-.316 2.473-.316 3.617 0 3.973 2.974 8.841 7.214 8.844 4.24-.003 7.204-4.871 7.204-8.844 0-1.144-.072-2.634-.316-3.617"/><path fill="red" d="M7.165 12.776h4.436v4.541H7.165zm-3.262 4.541h10.96l-5.48 7.69z"/></svg>
